X:1
T:Dallas County Jail
M:2/4
L:1/8
K:F
 F| AA GA| G F2 D| CD CB,| C3 F| AG Ac| d c3/2 F/2F/2 F/2| AA GF| G3|\
 F| AG Ac| d c2 A| GF FF| A3 F| AA GF| G2 FD| CD FG| F3||
